assets/images/about/history-2.svg

<svg width="85" height="68" viewBox="0 0 85 68" fill="none" xmlns="http://www.w3.org/2000/svg">
<path d="M79.1004 33.8771C79.1004 38.2393 73.4535 47.3082 73.1078 47.8822C72.7621 47.0786 67 31.2368 67 26.8745C67 22.3975 69.7658 20.3311 73.1078 22.2827C76.4498 24.349 79.1004 29.5148 79.1004 33.8771Z" stroke="#DF0112" stroke-miterlimit="10"/>
<path d="M69.7656 21.7086L74.3753 19.1831C74.3753 19.1831 74.3753 19.1831 74.4905 19.1831C75.4125 18.8387 76.6801 18.9535 77.9478 19.757C81.2898 21.7086 84.0556 26.8744 84.0556 31.3514C84.0556 35.8285 78.063 45.1269 78.063 45.1269C78.063 45.1269 77.8325 45.3565 77.7173 45.4713C76.6801 46.0453 73.1076 48.1116 73.1076 48.1116" stroke="#DF0112" stroke-miterlimit="10"/>
<path d="M74.8841 35.5285C76.2897 34.9327 76.5402 32.3687 75.4435 29.8017C74.3469 27.2347 72.3184 25.6368 70.9128 26.2326C69.5072 26.8285 69.2567 29.3925 70.3533 31.9595C71.45 34.5265 73.4785 36.1244 74.8841 35.5285Z" stroke="#DF0112" stroke-miterlimit="10"/>
<path d="M61.6064 12.8109C61.6064 16.274 57.1234 23.4738 56.849 23.9295C56.5745 23.2915 52 10.7147 52 7.25156C52 3.69725 54.1958 2.0568 56.849 3.60612C59.4107 5.24657 61.6064 9.34769 61.6064 12.8109Z" stroke="#DF0112" stroke-miterlimit="10"/>
<path d="M54.1958 3.15032L57.8554 1.14532C57.8554 1.14532 57.8554 1.14532 57.9469 1.14532C58.6788 0.871915 59.6852 0.963051 60.6916 1.601C63.3448 3.15032 65.5406 7.25144 65.5406 10.8057C65.5406 14.3601 60.8746 21.7421 60.8746 21.7421C60.8746 21.7421 60.6916 21.9244 60.6001 22.0155C59.7767 22.4712 56.9405 24.1116 56.9405 24.1116" stroke="#DF0112" stroke-miterlimit="10"/>
<path d="M58.1709 14.1401C59.2868 13.6671 59.4857 11.6316 58.615 9.59362C57.7444 7.5557 56.134 6.28712 55.0181 6.76017C53.9022 7.23322 53.7033 9.26876 54.574 11.3067C55.4446 13.3446 57.055 14.6132 58.1709 14.1401Z" stroke="#DF0112" stroke-miterlimit="10"/>
<path d="M18.2862 45.1184C18.2862 51.2026 10.2193 64.2893 9.64312 65.0929C9.18216 63.9449 1 41.3301 1 35.246C1 28.9322 4.80297 26.0623 9.64312 28.8174C14.4833 31.5725 18.2862 38.8046 18.2862 45.1184Z" stroke="#DF0112" stroke-miterlimit="10"/>
<path d="M5.03369 27.899L11.4872 24.3403C11.4872 24.3403 11.4872 24.3403 11.6025 24.2255C12.9854 23.7663 14.714 23.9959 16.4426 25.0291C21.1675 27.7842 25.0857 35.1311 25.0857 41.4449C25.0857 47.7587 16.6731 61.075 16.6731 61.075C16.6731 61.075 16.4426 61.4194 16.2121 61.649C14.8292 62.5673 9.7586 65.552 9.7586 65.552" stroke="#DF0112" stroke-miterlimit="10"/>
<path d="M12.2361 47.419C14.2274 46.5749 14.5687 42.9111 12.9985 39.2356C11.4283 35.5601 8.54116 33.2649 6.54988 34.109C4.55859 34.9531 4.21724 38.617 5.78744 42.2925C7.35764 45.9679 10.2448 48.2632 12.2361 47.419Z" stroke="#DF0112" stroke-miterlimit="10"/>
<path d="M12 67C63.5 57.5 71.5 51.5 69 47.5C66.5 43.5 24.5 38.5001 30.5 31.5C36.5 24.4999 45.5 24.5 53.5003 24" stroke="#0000BD" stroke-dasharray="2 2"/>
</svg>

<svg width="85" height="68" fill="none" xmlns="http://www.w3.org/2000/svg"><path d="M79.1 33.877c0 4.362-5.646 13.431-5.992 14.005C72.762 47.08 67 31.237 67 26.875c0-4.477 2.766-6.544 6.108-4.592 3.342 2.066 5.992 7.232 5.992 11.594z" stroke="#DF0112" stroke-miterlimit="10"/><path d="M69.766 21.709l4.61-2.526h.114c.922-.344 2.19-.23 3.458.574 3.342 1.952 6.108 7.117 6.108 11.594 0 4.477-5.993 13.776-5.993 13.776l-.346.344c-1.037.574-4.61 2.64-4.61 2.64" stroke="#DF0112" stroke-miterlimit="10"/><path d="M74.884 35.529c1.406-.596 1.656-3.16.56-5.727-1.097-2.567-3.126-4.165-4.531-3.57-1.406.596-1.656 3.16-.56 5.727 1.097 2.567 3.126 4.165 4.531 3.57zM61.606 12.81c0 3.464-4.483 10.664-4.757 11.12C56.575 23.29 52 10.715 52 7.252c0-3.555 2.196-5.195 4.849-3.646 2.562 1.64 4.757 5.742 4.757 9.205z" stroke="#DF0112" stroke-miterlimit="10"/><path d="M54.196 3.15l3.66-2.005h.09c.733-.273 1.74-.182 2.746.456 2.653 1.55 4.849 5.65 4.849 9.205 0 3.554-4.666 10.936-4.666 10.936l-.275.273c-.823.456-3.66 2.097-3.66 2.097" stroke="#DF0112" stroke-miterlimit="10"/><path d="M58.17 14.14c1.117-.473 1.316-2.508.445-4.546-.87-2.038-2.481-3.307-3.597-2.834-1.116.473-1.315 2.509-.444 4.547.87 2.038 2.481 3.306 3.597 2.833zM18.286 45.118c0 6.085-8.067 19.171-8.643 19.975C9.183 63.945 1 41.33 1 35.246c0-6.314 3.803-9.184 8.643-6.429 4.84 2.756 8.643 9.988 8.643 16.301z" stroke="#DF0112" stroke-miterlimit="10"/><path d="M5.034 27.899l6.453-3.559.115-.114c1.383-.46 3.112-.23 4.84.803 4.726 2.755 8.644 10.102 8.644 16.416s-8.413 19.63-8.413 19.63-.23.344-.46.574c-1.384.918-6.454 3.903-6.454 3.903" stroke="#DF0112" stroke-miterlimit="10"/><path d="M12.236 47.419c1.991-.844 2.333-4.508.762-8.183-1.57-3.676-4.457-5.971-6.448-5.127-1.991.844-2.333 4.508-.763 8.183 1.57 3.676 4.458 5.971 6.45 5.127z" stroke="#DF0112" stroke-miterlimit="10"/><path d="M12 67c51.5-9.5 59.5-15.5 57-19.5s-44.5-9-38.5-16 15-7 23-7.5" stroke="#0000BD" stroke-dasharray="2 2"/></svg>
